static/logo.white.svg

<?xml version="1.0" encoding="UTF-8"?>
<svg width="911" height="465" version="1.1" viewBox="0 0 911 465" xmlns="http://www.w3.org/2000/svg"><g clip-rule="evenodd" fill="#fff" fill-rule="evenodd"><path d="m89.082 376-40.034-136.44 5.2948-5.383c32.663-33.209 48.596-49.315 64.524-65.416 15.918-16.091 31.833-32.179 64.472-65.363l18.323 18.021c-32.663 33.209-48.596 49.314-64.525 65.416-13.154 13.297-26.307 26.593-48.897 49.536l95.579 24.982 77.619-78.916 18.322 18.021-77.619 78.917 26.625 95.375 125.95-125.8 18.161 18.183-146.79 146.61-137.01-37.748zm114.73 4.954-26.442-94.719-95.144-24.869 27.483 93.661 94.103 25.927z"/><path d="m346.45 212.06-90.069 91.574-18.322-18.021 90.143-91.65 21.402-21.401 18.172 18.172-21.326 21.326z"/><path d="m303.14 97.282-126.15 128.26-18.322-18.022 126.15-128.26 18.322 18.021z"/><path d="m381.88 96.63-84.1 85.505-18.322-18.021 84.099-85.505 18.323 18.021z"/></g><g fill="#fff"><path d="m489.14 335.14v-119.52h28.493v119.52h-28.493zm0-136.92v-24.361h28.602v24.361h-28.602z"/><path d="m608.66 337.42c-18.271 0-32.518-5.437-42.741-16.313-10.15-10.876-15.226-26.428-15.226-46.656 0-19.576 5.329-34.766 15.987-45.569 10.731-10.803 24.833-16.204 42.306-16.204 13.994 0 25.812 3.009 35.455 9.027l-6.743 20.337c-9.861-5.148-19.032-7.722-27.515-7.722-9.643 0-17.256 3.444-22.839 10.332-5.51 6.888-8.265 16.93-8.265 30.125 0 13.341 2.719 23.491 8.156 30.452 5.511 6.96 13.268 10.44 23.274 10.44 10.44 0 20.482-3.081 30.125-9.244l2.719 21.642c-5.003 3.336-10.187 5.728-15.552 7.178s-11.746 2.175-19.141 2.175z"/><path d="m727.9 337.42c-19.214 0-34.186-5.51-44.916-16.53-10.658-11.094-15.987-26.392-15.987-45.895 0-18.996 5.039-34.113 15.117-45.351s23.817-16.894 41.218-16.966c16.459 0 29.219 5.148 38.282 15.443 9.136 10.296 13.703 23.963 13.703 41.001 0 1.232-0.036 3.226-0.108 5.981v6.091h-79.501c0.29 11.165 3.335 19.83 9.136 25.992 5.873 6.091 13.92 9.136 24.143 9.136 13.051 0 25.594-3.408 37.63-10.223l4.024 20.228c-11.963 7.396-26.21 11.093-42.741 11.093zm-31.648-74.171h52.203c0-9.715-2.212-17.183-6.634-22.404-4.423-5.22-10.55-7.83-18.38-7.83-7.323 0-13.522 2.538-18.597 7.613-5.003 5.075-7.867 12.616-8.592 22.621z"/><path d="m847.53 337.42c-15.589 0-27.842-5.727-36.76-17.183s-13.377-26.754-13.377-45.895c0-18.561 4.423-33.46 13.268-44.698 8.918-11.311 21.172-16.966 36.76-16.966 16.966 0 28.965 6.018 35.998 18.053-0.725-7.105-1.088-13.957-1.088-20.555v-38.608l28.494-1.849v165.42h-24.687l-3.154-16.313c-1.233 1.958-2.393 3.662-3.48 5.112-1.015 1.377-2.538 3.009-4.568 4.894-2.03 1.812-4.241 3.299-6.634 4.459-2.32 1.087-5.293 2.03-8.918 2.827-3.553 0.87-7.504 1.305-11.854 1.305zm6.742-21.642c19.141 0 28.857-13.014 29.147-39.043 0-14.718-2.465-25.449-7.395-32.192-4.931-6.743-12.29-10.114-22.078-10.114-8.555 0-15.407 3.444-20.555 10.332-5.075 6.815-7.613 16.893-7.613 30.234 0 13.268 2.538 23.382 7.613 30.342 5.148 6.961 12.108 10.441 20.881 10.441z"/></g></svg>

<svg width="911" height="465" viewBox="0 0 911 465" fill="none" xmlns="http://www.w3.org/2000/svg">
<path fill-rule="evenodd" clip-rule="evenodd" d="M89.0825 375.996L49.048 239.559L54.3428 234.176C87.0058 200.967 102.939 184.861 118.867 168.76C134.785 152.669 150.7 136.581 183.339 103.397L201.662 121.418C168.999 154.627 153.066 170.732 137.137 186.834C123.983 200.131 110.83 213.427 88.2397 236.37L183.819 261.352L261.438 182.436L279.76 200.457L202.141 279.374L228.766 374.749L354.718 248.948L372.879 267.131L226.091 413.744L89.0825 375.996ZM203.815 380.95L177.373 286.231L82.229 261.362L109.712 355.023L203.815 380.95Z" fill="white"/>
<path fill-rule="evenodd" clip-rule="evenodd" d="M346.452 212.057L256.383 303.631L238.061 285.61L328.204 193.96L349.606 172.559L367.778 190.731L346.452 212.057Z" fill="white"/>
<path fill-rule="evenodd" clip-rule="evenodd" d="M303.136 97.2818L176.987 225.539L158.665 207.517L284.814 79.2605L303.136 97.2818Z" fill="white"/>
<path fill-rule="evenodd" clip-rule="evenodd" d="M381.88 96.6302L297.78 182.135L279.458 164.114L363.557 78.609L381.88 96.6302Z" fill="white"/>
<path d="M489.144 335.138V215.616H517.637V335.138H489.144ZM489.144 198.215V173.854H517.746V198.215H489.144Z" fill="white"/>
<path d="M608.657 337.422C590.386 337.422 576.139 331.985 565.916 321.109C555.766 310.233 550.69 294.681 550.69 274.453C550.69 254.877 556.019 239.687 566.677 228.884C577.408 218.081 591.51 212.68 608.983 212.68C622.977 212.68 634.795 215.689 644.438 221.707L637.695 242.044C627.834 236.896 618.663 234.322 610.18 234.322C600.537 234.322 592.924 237.766 587.341 244.654C581.831 251.542 579.076 261.584 579.076 274.779C579.076 288.12 581.795 298.27 587.232 305.231C592.743 312.191 600.5 315.671 610.506 315.671C620.946 315.671 630.988 312.59 640.631 306.427L643.35 328.069C638.347 331.405 633.163 333.797 627.798 335.247C622.433 336.697 616.052 337.422 608.657 337.422Z" fill="white"/>
<path d="M727.901 337.422C708.687 337.422 693.715 331.912 682.985 320.892C672.327 309.798 666.998 294.5 666.998 274.997C666.998 256.001 672.037 240.884 682.115 229.646C692.193 218.408 705.932 212.752 723.333 212.68C739.792 212.68 752.552 217.828 761.615 228.123C770.751 238.419 775.318 252.086 775.318 269.124C775.318 270.356 775.282 272.35 775.21 275.105C775.21 277.861 775.21 279.891 775.21 281.196H695.709C695.999 292.361 699.044 301.026 704.845 307.188C710.718 313.279 718.765 316.324 728.988 316.324C742.039 316.324 754.582 312.916 766.618 306.101L770.642 326.329C758.679 333.725 744.432 337.422 727.901 337.422ZM696.253 263.251H748.456C748.456 253.536 746.244 246.068 741.822 240.847C737.399 235.627 731.272 233.017 723.442 233.017C716.119 233.017 709.92 235.555 704.845 240.63C699.842 245.705 696.978 253.246 696.253 263.251Z" fill="white"/>
<path d="M847.528 337.422C831.939 337.422 819.686 331.695 810.768 320.239C801.85 308.783 797.391 293.485 797.391 274.344C797.391 255.783 801.814 240.884 810.659 229.646C819.577 218.335 831.831 212.68 847.419 212.68C864.385 212.68 876.384 218.698 883.417 230.733C882.692 223.628 882.329 216.776 882.329 210.178V171.57L910.823 169.721V335.138H886.136L882.982 318.825C881.749 320.783 880.589 322.487 879.502 323.937C878.487 325.314 876.964 326.946 874.934 328.831C872.904 330.643 870.693 332.13 868.3 333.29C865.98 334.377 863.007 335.32 859.382 336.117C855.829 336.987 851.878 337.422 847.528 337.422ZM854.27 315.78C873.411 315.78 883.127 302.766 883.417 276.737C883.417 262.019 880.952 251.288 876.022 244.545C871.091 237.802 863.732 234.431 853.944 234.431C845.389 234.431 838.537 237.875 833.389 244.763C828.314 251.578 825.776 261.656 825.776 274.997C825.776 288.265 828.314 298.379 833.389 305.339C838.537 312.3 845.497 315.78 854.27 315.78Z" fill="white"/>
</svg>
